static/assets/images/icons/download.svg

<svg width="256" height="256" viewBox="0 0 256 256" fill="none" xmlns="http://www.w3.org/2000/svg">
<path d="M128 174.922C126.25 174.922 124.609 174.651 123.078 174.108C121.547 173.566 120.125 172.634 118.812 171.312L71.5625 124.063C68.9375 121.438 67.6775 118.375 67.7825 114.875C67.8875 111.375 69.1475 108.313 71.5625 105.688C74.1875 103.063 77.3068 101.698 80.9206 101.593C84.5343 101.488 87.6493 102.743 90.2656 105.359L114.875 129.969V36.125C114.875 32.4063 116.135 29.2913 118.655 26.78C121.175 24.2688 124.29 23.0088 128 23C131.71 22.9913 134.829 24.2513 137.358 26.78C139.887 29.3088 141.142 32.4238 141.125 36.125V129.969L165.734 105.359C168.359 102.734 171.479 101.474 175.092 101.579C178.706 101.684 181.821 103.054 184.437 105.688C186.844 108.313 188.104 111.375 188.217 114.875C188.331 118.375 187.071 121.438 184.437 124.063L137.187 171.312C135.875 172.625 134.453 173.557 132.922 174.108C131.391 174.659 129.75 174.931 128 174.922ZM49.25 233C42.0312 233 35.8537 230.432 30.7175 225.296C25.5812 220.159 23.0087 213.977 23 206.75V180.5C23 176.781 24.26 173.666 26.78 171.155C29.3 168.644 32.415 167.384 36.125 167.375C39.835 167.366 42.9544 168.626 45.4831 171.155C48.0119 173.684 49.2675 176.799 49.25 180.5V206.75H206.75V180.5C206.75 176.781 208.01 173.666 210.53 171.155C213.05 168.644 216.165 167.384 219.875 167.375C223.585 167.366 226.704 168.626 229.233 171.155C231.762 173.684 233.017 176.799 233 180.5V206.75C233 213.969 230.432 220.151 225.295 225.296C220.159 230.441 213.977 233.009 206.75 233H49.25Z" fill="black"/>
</svg>

<svg xmlns="http://www.w3.org/2000/svg" fill="none" viewBox="0 0 256 256"><path fill="#000" d="M128 174.922q-2.625 0-4.922-.814-2.297-.813-4.266-2.796l-47.25-47.249q-3.937-3.938-3.78-9.188t3.78-9.187q3.939-3.937 9.359-4.095t9.345 3.766l24.609 24.61V36.125q0-5.579 3.78-9.345T128 23t9.358 3.78q3.793 3.793 3.767 9.345v93.844l24.609-24.61q3.938-3.937 9.358-3.78 5.421.158 9.345 4.109 3.61 3.937 3.78 9.187.171 5.25-3.78 9.188l-47.25 47.249q-1.968 1.97-4.265 2.796-2.297.827-4.922.814M49.25 233q-10.828 0-18.532-7.704-7.706-7.705-7.718-18.546V180.5q0-5.578 3.78-9.345 3.78-3.766 9.345-3.78t9.358 3.78 3.767 9.345v26.25h157.5V180.5q0-5.578 3.78-9.345 3.78-3.766 9.345-3.78t9.358 3.78T233 180.5v26.25q0 10.828-7.705 18.546-7.704 7.717-18.545 7.704z"/></svg>
